X: 197
T: A Fisherman's Song For Attracting Seals
R: jig
M: 6/8
K: Eminor
|:B2d dBA|dBA dBA|B2d dBA|e2d e3:|
|:g2f g2a|e2d e3|g2f g2a|e2d e3|aee gee|
edB dBA|B2d dBA|dBA dBA|B2d dBA|e2 d e3:|

